X: 33
T:Muddy Water
% Nottingham Music Database
S:Oklahoma, via EF
M:4/4
L:1/4
K:D
P:A
A/2G/2|"D"FD D/2E/2F/2D/2|"Em"E\
P:*
A "A7"A3/2G/2|"D"FF "A7/e"GF/2G/2|"D/f+"A
P:*
d "G"d/2B/2A/2G/2|"D"FD D/2E/2F/2D/2|"G"EA "A"A3/2G/2|"Em"FE/2F/2 "A"GF/2E/2|\
"G"DF "A7"D:|
P:B
A|"D"d3/2e/2 fe/2d/2|"Em"ce/2d/2 "A7"c/2B/2A|"D"d3/2e/2 "A7"f/2e/2d/2e/2|\
"D"fa "A7"aA|
"D"d3/2e/2 "Bm"fe/2d/2|"Em"ce/2d/2 "A7"c/2B/2A|"G"AB/2c/2 "A7"d/2B/2A/2G/2|\
"G""D"FD "A7"D:|


